X: 673
T: Willie Was a Wanton Wag
R: reel
B: RSCDS 28-8
Z: 1997 by John Chambers <jc:trillian.mit.edu>
N: Song by Robert Burns (Tune may be older)
N: Published as The Constitution March in early American sources.
N: The original tune for Jefferson & Liberty.
M: C|
L: 1/8
K: D
AG \
| "D"F2A2 "(A)"A2Bc \
| "D"dcde "(A)"dBAG \
| "D"F2A2 A2ef \
| "Em"gfed "A7"B2AG \
| "D"F2A2 "(A)"A2Bc |
| "D"dcde "(A)"dBAG \
| "D"F2A2 A2"G"g2 \
| "A7"faec "D"d2 \
:: g2 \
| "D"f3a "A7"e3f \
| "Bm"dcde "A7"gfed |
| "D"fgaf "Em"e3f \
| "G"gfed "A7"B3g \
| "D"fagf "A7"egfe \
| "Bm"dcde "A7"fefg \
| "D"a2A2 A2"G"g2 \
| "A7"faec "D"d2 :|

%%sep 1 1 500

